src/22/actions/show-node-handles.svg

<svg xmlns="http://www.w3.org/2000/svg" viewBox="0 0 22 22">
  <defs id="defs3051">
    <style type="text/css" id="current-color-scheme">
      .ColorScheme-Text {
        color:#5d656b;
      }
      .ColorScheme-Highlight {
        color:#3daee9;
      }
      </style>
  </defs>
 <path 
     style="fill:currentColor;fill-opacity:1;stroke:none" 
     d="M 16 4 L 16 4.9980469 A 11.559518 11 0 0 0 15.886719 4.9980469 L 15.886719 5 A 11.559518 11 0 0 0 4.5 15 L 5.546875 15 A 10.508653 10 0 0 1 15.896484 6 A 10.508653 10 0 0 1 16 6 L 16 7 L 19 7 L 19 4 L 16 4 z M 17 5 L 18 5 L 18 6 L 17 6 L 17 5 z "
     class="ColorScheme-Text"
     />
 <path 
     style="fill:currentColor;fill-opacity:1;stroke:none" 
     d="M 4.9804688 3 A 2 2 0 0 0 3 5.0136719 A 2 2 0 0 0 4.5 6.9355469 L 4.5 9 L 5.5 9 L 5.5 6.9335938 A 2 2 0 0 0 7 5 L 7 4.9746094 A 2 2 0 0 0 4.9804688 3 z M 4.9902344 4 A 1 1 0 0 1 6 4.9863281 L 6 5 A 1 1 0 0 1 5.0039062 6 A 1 1 0 0 1 4 5.0058594 A 1 1 0 0 1 4.9902344 4 z M 4.5 10 L 4.5 11 L 5.5 11 L 5.5 10 L 4.5 10 z M 3 15 L 3 19 L 7 19 L 7 15 L 3 15 z M 4 16 L 6 16 L 6 18 L 4 18 L 4 16 z "
     class="ColorScheme-Highlight"
     />
</svg>

<svg xmlns="http://www.w3.org/2000/svg" viewBox="0 0 22 22"><path d="M16 4v.998a11.56 11 0 0 0-.113 0V5A11.56 11 0 0 0 4.5 15h1.047a10.509 10 0 0 1 10.35-9A10.509 10 0 0 1 16 6v1h3V4h-3zm1 1h1v1h-1V5z" fill="currentColor" color="#5d656b"/><path d="M4.98 3A2 2 0 0 0 3 5.014a2 2 0 0 0 1.5 1.922V9h1V6.934A2 2 0 0 0 7 5v-.025A2 2 0 0 0 4.98 3zm.01 1A1 1 0 0 1 6 4.986V5a1 1 0 0 1-.996 1A1 1 0 0 1 4 5.006 1 1 0 0 1 4.99 4zm-.49 6v1h1v-1h-1zM3 15v4h4v-4H3zm1 1h2v2H4v-2z" fill="currentColor" color="#3daee9"/></svg>
